X: 25031
T: Maiden Magpie, The
R: reel
M: 4/4
K: Dmajor
|:DFAF dFAF|DFAF GFEF|DFAF dFAF|defd B/c/d AF|
DFAF dFAF|dFAF GFEF|DFAF dFAF|1 defd B/c/d AF:|2 defd B/c/d Ag||
|:f2 fd e/f/g ec|dcdB AF ~F2|dfed ceAc|dcBA Bcde|
[1 fafd e/f/g ec|dcdB AF F2|~G3 A Bcde|fded Bcde:|
[2 fA A/A/A eA A/A/A|dcdB AF F2|GFGA Bcde|fded B/c/d AF||

